public/logos/react.svg

<svg version="1.1" xmlns="http://www.w3.org/2000/svg" x="0" y="0" width="570" height="510" viewBox="0 0 570 510">
  <path fill="#000" fill-opacity="0" d="M0 0h570v510H0z"/>
  <path d="M334.696 254.628c0 27.706-22.461 50.167-50.167 50.167-27.706 0-50.167-22.461-50.167-50.167 0-27.706 22.461-50.167 50.167-50.167 27.706 0 50.167 22.461 50.167 50.167z" fill="#00D8FF"/>
  <path d="M284.529 152.628c67.356 0 129.928 9.665 177.107 25.907 56.844 19.569 91.794 49.233 91.794 76.093 0 27.991-37.041 59.503-98.083 79.728-46.151 15.291-106.879 23.272-170.818 23.272-65.554 0-127.63-7.492-174.29-23.441-59.046-20.182-94.611-52.103-94.611-79.559 0-26.642 33.37-56.076 89.415-75.616 47.355-16.509 111.472-26.384 179.486-26.384z" fill-opacity="0" stroke="#00D8FF" stroke-width="24" stroke-miterlimit="10"/>
  <path d="M195.736 203.922c33.649-58.348 73.281-107.724 110.92-140.48 45.35-39.466 88.507-54.923 111.775-41.505 24.248 13.983 33.042 61.814 20.067 124.796-9.81 47.618-33.234 104.212-65.176 159.601-32.749 56.788-70.25 106.819-107.377 139.272-46.981 41.068-92.4 55.929-116.185 42.213-23.079-13.31-31.906-56.921-20.834-115.233 9.355-49.27 32.832-109.745 66.81-168.664z" fill-opacity="0" stroke="#00D8FF" stroke-width="24" stroke-miterlimit="10"/>
  <path d="M195.821 306.482c-33.746-58.292-56.731-117.287-66.312-166.255-11.544-58.999-3.382-104.109 19.864-117.566 24.224-14.024 70.055 2.244 118.14 44.94 36.356 32.28 73.688 80.837 105.723 136.173 32.844 56.733 57.461 114.209 67.036 162.582 12.117 61.213 2.309 107.984-21.453 121.74-23.057 13.348-65.249-.784-110.239-39.499-38.013-32.711-78.682-83.253-112.759-142.115z" fill-opacity="0" stroke="#00D8FF" stroke-width="24" stroke-miterlimit="10"/>
</svg>

<?xml version="1.0" encoding="UTF-8"?>
<!DOCTYPE svg PUBLIC "-//W3C//DTD SVG 1.1//EN" "http://www.w3.org/Graphics/SVG/1.1/DTD/svg11.dtd">
<svg version="1.1" xmlns="http://www.w3.org/2000/svg" xmlns:xlink="http://www.w3.org/1999/xlink" x="0" y="0" width="570" height="510" viewBox="0, 0, 570, 510">
  <g id="Background">
    <rect x="0" y="0" width="570" height="510" fill="#000000" fill-opacity="0"/>
  </g>
  <g id="Layer_1">
    <path d="M334.696,254.628 C334.696,282.334 312.235,304.795 284.529,304.795 C256.823,304.795 234.362,282.334 234.362,254.628 C234.362,226.922 256.823,204.461 284.529,204.461 C312.235,204.461 334.696,226.922 334.696,254.628 z" fill="#00D8FF"/>
    <path d="M284.529,152.628 C351.885,152.628 414.457,162.293 461.636,178.535 C518.48,198.104 553.43,227.768 553.43,254.628 C553.43,282.619 516.389,314.131 455.347,334.356 C409.196,349.647 348.468,357.628 284.529,357.628 C218.975,357.628 156.899,350.136 110.239,334.187 C51.193,314.005 15.628,282.084 15.628,254.628 C15.628,227.986 48.998,198.552 105.043,179.012 C152.398,162.503 216.515,152.628 284.529,152.628 z" fill-opacity="0" stroke="#00D8FF" stroke-width="24" stroke-miterlimit="10"/>
    <path d="M195.736,203.922 C229.385,145.574 269.017,96.198 306.656,63.442 C352.006,23.976 395.163,8.519 418.431,21.937 C442.679,35.92 451.473,83.751 438.498,146.733 C428.688,194.351 405.264,250.945 373.322,306.334 C340.573,363.122 303.072,413.153 265.945,445.606 C218.964,486.674 173.545,501.535 149.76,487.819 C126.681,474.509 117.854,430.898 128.926,372.586 C138.281,323.316 161.758,262.841 195.736,203.922 z" fill-opacity="0" stroke="#00D8FF" stroke-width="24" stroke-miterlimit="10"/>
    <path d="M195.821,306.482 C162.075,248.19 139.09,189.195 129.509,140.227 C117.965,81.228 126.127,36.118 149.373,22.661 C173.597,8.637 219.428,24.905 267.513,67.601 C303.869,99.881 341.201,148.438 373.236,203.774 C406.08,260.507 430.697,317.983 440.272,366.356 C452.389,427.569 442.581,474.34 418.819,488.096 C395.762,501.444 353.57,487.312 308.58,448.597 C270.567,415.886 229.898,365.344 195.821,306.482 z" fill-opacity="0" stroke="#00D8FF" stroke-width="24" stroke-miterlimit="10"/>
  </g>
</svg>
